X:1
T:Title
%%score [ ( 1 2 ) ( 3 4 ) ] { ( 5 6 ) | ( 7 8 ) }
L:1/8
Q:1/4=120
M:4/4
K:A
V:1 treble nm="Midi_74"
V:2 treble 
V:3 bass nm="Midi_74"
V:4 bass 
V:5 treble nm="Org."
V:6 treble 
V:7 bass 
V:8 bass 
V:1
 (A6 G2) | A4 B4 | c8 || A8 | d4 c4 | B4 A4 | G8 || ([GB]6 [FA]2) | [GB]4 [Ac]4 | [Bd]8 || [GB]8 | %11
 [ce]4 [Bd]4 |"^John Camidge\n(1790-1859)" [Ac]4 [GB]4 | [Ac]8 |] %14
V:2
 (C6 B,2) | C4 D4 | E8 || C8 | F4 E4 | D4 C4 | B,8 || E8 | E4 E4 | E8 || D8 | C4 D4 | E4 E4 | E8 |] %14
V:3
 A,8 | A,4 E,4 | A,8 || A,8 | A,4 A,4 | A,4 E,4 | E,8 || (G,6 B,2) | D4 C4 | B,8 || B,8 | A,4 B,4 | %12
 C4 D4 | C8 |] %14
V:4
 A,,8 | A,,4 A,,4 | A,,8 || A,,8 | A,,4 A,,4 | A,,4 A,,4 | E,8 || E,8 | E,4 E,4 | E,8 || E,8 | %11
 E,4 E,4 | E,4 E,4 | A,,8 |] %14
V:5
 A6 G2 | A4 B4 | c8 || A8 | d4 c4 | B4 A4 |{A} G8 || [GB]6 [FA]2 | [GB]4 [Ac]4 | [Bd]8 || [GB]8 | %11
 [ce]4 [Bd]4 | [Ac]4 [DGB]4 | [Ac]8 |] %14
V:6
 C6 B,2 | C4 D4 | E8 || C8 | F4 E4 | D4 C4 | B,8 || E8 | E8 | E8 || D8 | C4 D4 | E8 | [CE]8 |] %14
V:7
 x8 | x8 | x8 || x8 | x8 | x8 | x8 || E,8- | E,4 x4 | x8 || x8 | x8 | x8 | x8 |] %14
V:8
 [A,,A,]8- | [A,,A,]4 [A,,A,]4 | [A,,A,]8 || [A,,A,]8- | [A,,A,]8 | [A,,A,]8 | [E,,E,]8 || E,,8- | %8
 E,,8 | [E,,E,]8- || [E,,E,]8 | [E,,E,]8 | [E,,E,]8 | [A,,E,]8 |] %14

